X: 143
M: C
L: 1/8
K: F
V: 1
f/g/ | afcf Ffaf | dg b/a/g/f/ eggb | afcf Ffaf | efdf cffg |
afcf Ffaf | dg/a/ (b/a/).g/.f/ e>ggb | a>b a/g/f/e/ {e}f>dc>A | Bd c/d/c/B/ AFF |]
V: 2 clef=bass middle=d
z | f2f2 f2a2 | f2F2  c2c2  | F2f2  f2a2 | b2c'2 f2F :|
z | f2f2 a2f2 | b2=b2 c'2c2 | f2f2  a2f2 | c'2b2 a2f2 |
    f2f2 a2f2 | b2=b2 c'2c2 | f2c'2 b2a2 | b2c'2 f2F |]


